dist/img/svg/ic_step5.svg

<svg width="60" height="60" viewBox="0 0 60 60" fill="none" xmlns="http://www.w3.org/2000/svg">
<path d="M30.5513 25.1613V23.2257C28.4309 23.2257 26.7066 21.4897 26.7066 19.3547H24.7842C24.7842 22.5569 27.371 25.1613 30.5513 25.1613Z" fill="#008FD6"/>
<path d="M53.0875 21.7436L59.7945 18.8499L58.6131 16.7702C56.6457 13.3028 53.8257 10.4567 50.4068 8.47461L52.4452 6.42091L49.5521 5.25573C45.9265 3.79549 41.9099 3.48285 38.1094 4.36134L39.7165 1.12693L30.0965 0.0504671C29.7947 0.0178219 29.49 0.000244141 29.1861 0.000244141C24.6391 0.000244141 20.9395 3.72516 20.9395 8.30335V8.47453C20.9395 11.0556 21.8303 13.496 23.4577 15.45L16.9294 22.023C14.5567 24.4124 13.2502 27.5885 13.2502 30.9677C13.2502 34.3469 14.5563 37.5231 16.9294 39.9124L20.308 43.3141C21.9998 45.0175 23.9863 46.312 26.1462 47.1717C24.6248 47.8355 23.3204 48.9454 22.3843 50.373C22.2263 50.345 22.0659 50.3224 21.9008 50.3224C20.3112 50.3224 19.0172 51.6248 19.0172 53.2257V57.0967C19.0172 58.6971 20.3108 60 21.9008 60H38.2406V51.2905C38.2406 49.9299 37.6753 48.7035 36.775 47.823C39.723 47.0613 42.4315 45.5362 44.6392 43.3134L50.7355 37.1749L52.9211 39.3755L53.8573 37.4893C54.96 35.2724 55.5416 32.7893 55.5416 30.309C55.5416 27.4011 54.7564 24.5435 53.2694 22.0474L53.0875 21.7436ZM17.6103 24.1455L22.4276 28.9958C20.8552 30.274 18.9114 30.9679 16.8625 30.9679H15.1728C15.1728 28.4479 16.0328 26.0615 17.6103 24.1455ZM18.2887 38.5443C16.7403 36.9853 15.7348 35.0288 15.3515 32.9035H16.8616C19.748 32.9035 22.4612 31.7722 24.5018 29.7169L25.1822 29.0326L18.9346 22.7422L27.6675 13.9494L37.1628 23.5097C37.8578 24.2091 38.2402 25.1403 38.2402 26.1293C38.2402 27.1182 37.8578 28.0495 37.1628 28.7488L34.9589 30.9678L37.327 33.3521C37.916 33.9452 38.2402 34.7341 38.2402 35.5712C38.2402 37.3017 36.8427 38.7097 35.1243 38.7097C34.2909 38.7097 33.5086 38.3837 32.9204 37.7902L30.551 35.4059L22.932 43.077C22.4947 42.7238 22.0699 42.3501 21.6671 41.945L18.2887 38.5443ZM37.3186 40.1181L41.0074 43.8312C38.5045 45.5334 35.5595 46.4516 32.4731 46.4516C29.6253 46.4516 26.9051 45.6572 24.5357 44.1994L30.5509 38.1426L31.5602 39.1587C32.5117 40.118 33.7766 40.6453 35.1242 40.6453C35.914 40.6453 36.6523 40.4449 37.3186 40.1181ZM20.9395 57.0969V53.226C20.9395 52.6928 21.3701 52.2583 21.9005 52.2583C22.4309 52.2583 22.8615 52.6928 22.8615 53.226V57.0969C22.8615 57.6301 22.4309 58.0645 21.9005 58.0645C21.3701 58.0645 20.9395 57.6301 20.9395 57.0969ZM28.6287 58.0645H24.6074C24.7151 57.7607 24.7841 57.4376 24.7841 57.0969V53.226C24.7841 52.4935 24.5043 51.8307 24.0575 51.3196C25.3061 49.4973 27.3592 48.3874 29.5901 48.3874H29.6151C29.0045 49.1985 28.6287 50.1972 28.6287 51.2908L28.6287 58.0645ZM36.3179 58.0645H30.5508V51.2902C30.5508 49.6897 31.8444 48.3869 33.4344 48.3869C35.024 48.3869 36.318 49.6893 36.318 51.2902L36.3179 58.0645ZM46.4102 38.7928L42.7647 35.1223L41.4055 36.4909L45.051 40.1614L43.2797 41.9447C43.0395 42.1866 42.7838 42.4055 42.5311 42.6278L38.8652 38.9368C39.6629 38.0387 40.1629 36.8668 40.1629 35.5702C40.1629 34.2162 39.6392 32.9419 38.6877 31.9826L37.6772 30.9677L41.1241 27.4977L49.3766 35.8067L46.4102 38.7928ZM52.3855 36.0987L42.4608 26.1068C43.4621 24.8894 44.0075 23.3747 44.0075 21.7742C44.0075 19.9557 43.305 18.246 42.0264 16.9599L37.9589 12.8646L36.5997 14.2331L40.6672 18.3284C41.5825 19.2492 42.085 20.4726 42.085 21.7741C42.085 23.0757 41.5825 24.299 40.6672 25.2202L40.1434 25.7476C40.0532 24.3848 39.4887 23.1163 38.521 22.142L27.62 11.1642C27.0306 10.5712 26.7068 9.7823 26.7068 8.94519C26.7068 7.21506 28.1043 5.8071 29.8227 5.8071H30.5513V3.87147H29.8227C27.045 3.87147 24.7842 6.14738 24.7842 8.94519C24.7842 10.2992 25.3079 11.5735 26.2594 12.5328L26.3089 12.5809L24.8228 14.0771C23.5541 12.4939 22.862 10.5381 22.862 8.47476V8.30357C22.862 4.79252 25.6994 1.9361 29.1862 1.9361C29.419 1.9361 29.6534 1.94949 29.8849 1.97461L36.764 2.74386L34.5235 7.25552L38.2151 6.32639C41.7263 5.44204 45.4728 5.69651 48.8399 7.05211L49.0253 7.1266L47.1905 8.97395L48.3835 9.57496C51.9858 11.3885 54.9462 14.2084 56.9444 17.729L57.0549 17.9245L50.3055 20.8375L51.6203 23.0418C52.928 25.2378 53.6188 27.7502 53.6188 30.3091C53.6188 32.2967 53.194 34.2861 52.3855 36.0987Z" fill="black"/>
<path d="M13.5324 22.9424L14.8917 21.5739L3.02761 9.62859C2.18171 8.77773 1.71659 7.64646 1.71659 6.44282C1.71659 3.95765 3.7243 1.9362 6.19256 1.9362H6.5222C8.11181 1.9362 9.4058 3.23862 9.4058 4.83954C9.4058 6.44003 8.11224 7.74246 6.5222 7.74246C5.99179 7.74246 5.56116 7.30803 5.56116 6.77483C5.56116 6.24163 5.99181 5.80721 6.5222 5.80721H7.48324L7.48366 3.87157H6.52219C4.93259 3.87157 3.63902 5.174 3.63902 6.77492C3.63902 8.37541 4.93259 9.67826 6.52262 9.67826C9.17253 9.67826 11.3283 7.50777 11.3283 4.83971C11.3283 2.17122 9.17211 0.000732422 6.52219 0.000732422H6.19255C2.6643 0.000732422 -0.205566 2.89026 -0.205566 6.4431C-0.205566 8.16488 0.45952 9.78294 1.6687 10.9984L13.5324 22.9424Z" fill="#008FD6"/>
<path d="M4.60007 19.3545C1.95016 19.3545 -0.205566 21.525 -0.205566 24.193C-0.205566 25.7935 1.088 27.0964 2.67803 27.0964C4.26764 27.0964 5.56163 25.794 5.56163 24.193V23.2254H3.63916V24.193C3.63916 24.7262 3.20851 25.1607 2.67812 25.1607C2.14771 25.1607 1.71707 24.7262 1.71707 24.193C1.71707 22.5926 3.01064 21.2897 4.60067 21.2897C5.56962 21.2897 6.51739 21.6856 7.20238 22.3745L10.6492 25.845L12.0084 24.4764L8.5616 21.006C7.51825 19.9563 6.0746 19.3545 4.60014 19.3545H4.60007Z" fill="#008FD6"/>
<path d="M-0.205444 33.8712C-0.205444 35.4717 1.08812 36.7746 2.67815 36.7746C4.26776 36.7746 5.56175 35.4721 5.56175 33.8712V32.9036H3.63928V33.8712C3.63928 34.4044 3.20864 34.8388 2.67824 34.8388C2.14783 34.8388 1.71719 34.4044 1.71719 33.8712C1.71719 32.2707 3.01076 30.9679 4.60079 30.9679H11.329V29.0322L4.60047 29.0326C1.95056 29.0326 -0.205167 31.2031 -0.205167 33.8712L-0.205444 33.8712Z" fill="#008FD6"/>
</svg>

<svg width="60" height="60" viewBox="0 0 60 60" fill="none" xmlns="http://www.w3.org/2000/svg"><path d="M30.551 25.161v-1.935c-2.12 0-3.844-1.736-3.844-3.871h-1.923c0 3.202 2.587 5.806 5.767 5.806z" fill="#008FD6"/><path d="M53.087 21.744l6.707-2.894-1.18-2.08a22.247 22.247 0 00-8.207-8.295l2.038-2.054-2.893-1.165A19.163 19.163 0 0038.11 4.36l1.608-3.234L30.097.05a8.478 8.478 0 00-.91-.05c-4.548 0-8.248 3.725-8.248 8.303v.172c0 2.58.891 5.021 2.519 6.975l-6.529 6.573a12.61 12.61 0 00-3.679 8.945c0 3.379 1.306 6.555 3.68 8.944l3.378 3.402a17.146 17.146 0 005.838 3.858 8.643 8.643 0 00-3.762 3.201 2.761 2.761 0 00-.483-.05c-1.59 0-2.884 1.302-2.884 2.903v3.87c0 1.601 1.294 2.904 2.884 2.904h16.34v-8.71c0-1.36-.566-2.587-1.466-3.467a17.053 17.053 0 007.864-4.51l6.096-6.138 2.186 2.2.936-1.886a16.15 16.15 0 00-.588-15.442l-.181-.303zM17.61 24.145l4.818 4.85a8.775 8.775 0 01-5.566 1.973h-1.69c0-2.52.86-4.907 2.438-6.823zm.679 14.4a10.654 10.654 0 01-2.938-5.642h1.51c2.887 0 5.6-1.13 7.64-3.186l.681-.684-6.247-6.29 8.733-8.794 9.495 9.56a3.695 3.695 0 011.077 2.62c0 .99-.382 1.92-1.077 2.62l-2.204 2.219 2.368 2.384a3.13 3.13 0 01.913 2.22c0 1.73-1.397 3.138-3.116 3.138a3.08 3.08 0 01-2.204-.92l-2.369-2.384-7.619 7.671a15.583 15.583 0 01-1.265-1.132l-3.378-3.4zm19.03 1.573l3.688 3.713a15.109 15.109 0 01-8.534 2.62c-2.848 0-5.568-.794-7.937-2.252l6.015-6.056 1.01 1.016a4.984 4.984 0 003.563 1.486c.79 0 1.528-.2 2.195-.527zm-16.38 16.979v-3.871c0-.533.431-.968.962-.968.53 0 .96.435.96.968v3.87c0 .534-.43.969-.96.969a.965.965 0 01-.962-.968zm7.69.968h-4.022a2.88 2.88 0 00.177-.968v-3.871c0-.733-.28-1.395-.726-1.906a6.701 6.701 0 015.532-2.933h.025a4.809 4.809 0 00-.986 2.904v6.774zm7.689 0H30.55V51.29c0-1.6 1.293-2.903 2.883-2.903s2.884 1.302 2.884 2.903v6.775zM46.41 38.793l-3.645-3.67-1.36 1.368 3.646 3.67-1.771 1.784c-.24.242-.496.46-.749.683l-3.666-3.691a5.054 5.054 0 001.298-3.367 5.062 5.062 0 00-1.475-3.587l-1.01-1.015 3.446-3.47 8.253 8.309-2.967 2.986zm5.976-2.694l-9.925-9.992a6.783 6.783 0 001.547-4.333 6.782 6.782 0 00-1.982-4.814l-4.067-4.095-1.36 1.368 4.068 4.095a4.854 4.854 0 011.418 3.446 4.856 4.856 0 01-1.418 3.446l-.524.528a5.61 5.61 0 00-1.622-3.606L27.62 11.164a3.128 3.128 0 01-.913-2.219c0-1.73 1.397-3.138 3.116-3.138h.728V3.871h-.728c-2.778 0-5.039 2.276-5.039 5.074 0 1.354.524 2.628 1.475 3.588l.05.048-1.486 1.496a8.914 8.914 0 01-1.961-5.602v-.171c0-3.511 2.837-6.368 6.324-6.368.233 0 .467.013.699.039l6.879.769-2.24 4.512 3.691-.93a17.263 17.263 0 0110.625.726l.185.075-1.834 1.847 1.192.601a20.33 20.33 0 018.561 8.154l.11.195-6.748 2.913 1.314 2.205a14.207 14.207 0 01.766 13.057z" fill="#000"/><path d="M13.532 22.942l1.36-1.368L3.028 9.629a4.488 4.488 0 01-1.311-3.186c0-2.485 2.007-4.507 4.476-4.507h.33c1.589 0 2.883 1.303 2.883 2.904 0 1.6-1.294 2.902-2.884 2.902a.965.965 0 01-.96-.967c0-.533.43-.968.96-.968h.961V3.872h-.96c-1.59 0-2.884 1.302-2.884 2.903 0 1.6 1.294 2.903 2.884 2.903 2.65 0 4.805-2.17 4.805-4.838C11.328 2.17 9.172 0 6.522 0h-.33C2.665 0-.205 2.89-.205 6.444c0 1.722.666 3.34 1.875 4.555l11.863 11.944zM4.6 19.355c-2.65 0-4.806 2.17-4.806 4.838 0 1.6 1.294 2.903 2.884 2.903 1.59 0 2.884-1.302 2.884-2.903v-.968H3.639v.968c0 .533-.43.968-.96.968a.965.965 0 01-.962-.968c0-1.6 1.294-2.903 2.884-2.903.969 0 1.916.396 2.601 1.085l3.447 3.47 1.36-1.369-3.447-3.47A5.624 5.624 0 004.6 19.355zM-.205 33.871c0 1.6 1.293 2.904 2.883 2.904s2.884-1.303 2.884-2.904v-.967H3.639v.967c0 .533-.43.968-.96.968a.965.965 0 01-.962-.968c0-1.6 1.294-2.903 2.884-2.903h6.728v-1.936H4.6c-2.65 0-4.805 2.171-4.805 4.84z" fill="#008FD6"/></svg>
